src/img/svg/heroStarL.svg

<svg width="160" height="263" viewBox="0 0 160 263" fill="none" xmlns="http://www.w3.org/2000/svg">
<path d="M4.7133 -12.925L30.398 83.8208L89.1112 2.75169L53.0248 96.1177L148.176 65.0422L64.1023 119.366L159.347 150.154L59.3993 144.685L118.357 225.576L40.7122 162.405L40.8634 262.502L15.1787 165.756L-43.5345 246.825L-7.4481 153.459L-102.599 184.534L-18.5256 130.211L-113.77 99.423L-13.8226 104.891L-72.7805 24.0002L4.86451 87.172L4.7133 -12.925Z" fill="url(#paint0_linear_38_125)"/>
<defs>
<linearGradient id="paint0_linear_38_125" x1="260.04" y1="124.838" x2="-8.55935" y2="193.385" gradientUnits="userSpaceOnUse">
<stop offset="0.545011" stop-color="#FFE3E3"/>
<stop offset="1" stop-color="white" stop-opacity="0"/>
</linearGradient>
</defs>
</svg>

<svg width="160" height="263" fill="none" xmlns="http://www.w3.org/2000/svg"><path d="m4.713-12.925 25.685 96.746L89.111 2.75 53.025 96.119l95.151-31.076-84.074 54.324 95.245 30.788-99.948-5.469 58.958 80.891-77.645-63.171.151 100.097-25.684-96.746-58.714 81.069 36.087-93.366-95.151 31.075 84.073-54.323-95.244-30.788 99.947 5.468-58.958-80.89L4.865 87.171 4.713-12.925Z" fill="url(#a)"/><defs><linearGradient id="a" x1="260.04" y1="124.838" x2="-8.559" y2="193.385" gradientUnits="userSpaceOnUse"><stop offset=".545" stop-color="#FFE3E3"/><stop offset="1" stop-color="#fff" stop-opacity="0"/></linearGradient></defs></svg>
